!!!OTL: 595. Schuetzenlied. / Aus "Wilhelm Tell" von Fr. v. Schiller 1603.
!!!COM: Anselm Weber
!!!ODT: 1804
!!!ARE: Europa, Mitteleuropa, Deutschland
!!!SCT: B0595
!!!TXL: @@DE
!!!YEM: Copyright 1995, estate of Helmut Schaffrath.
**kern	**text
*ICvox	*
*Ivox	*
*clefG2	*
*M6/8	*
*k[b-]	*
*F:	*
=1	=1
!LO:TX:a:t=Munter.	!
{4f	Mit
8f	dem
4a	Pfeil,
8a	dem
=2	=2
4.cc	Bo-
4.a}	-gen
=3	=3
{4b-	durch
8b-	Ge-
8aL	-birg
8gJ	.
8f	und
=4	=4
4.g	Thal
4r	.
8r}	.
=5	=5
{4g	kommt
8a	der
4b-	Schütʒ'
8a	ge-
=6	=6
4.dd	-ʒo-
4.cc}	-gen
=7	=7
{4ff	früh
8cc	am
8b-L	Morgenſtrahl.
8aJ	.
8g	.
=8	=8
4.f	.
4r}	.
{16a	La
16b-	la
=9	=9
4cc	la
16a	la
16b-	la
4cc	la
16a	la
16b-	la
=10	=10
4.cc	la
4a}	la
{8f	la
=11	=11
!LO:TX:a:t=(Bei der Wiederholung pp).	!
4g	la
8g	la
8g	la
8f	la
8g	la
=12	=12
4.f	la.
4r}	.
{16a	La
16b-	la
=13	=13
4cc	la
16a	la
16b-	la
4cc	la
16a	la
16b-	la
=14	=14
4.cc	la
4a}	la
{8f	la
=15	=15
4g	la
8g	la
8g	la
8f	la
8g	la
=16	=16
4.f	la.
4.r}	.
==	==
!!!AGN: Staende -, Jaeger - Lied
!!!GTL: Jägerlieder
!!!ONB: ESAC (Essen Associative Code) Database: BOEHME
!!!AMT: compound duple
!!!AIN: vox
!!!EED: Helmut Schaffrath
!!!EEV: 1.0
!!!Text: F. Schiller
!!!URL-scan: https://archive.org/details/BoehmeVtLieder1895/page/n471/mode/2up
!!!ENC: Anna Maria Matuszewska
!!!EEV: 2024/15/07
*-	*-
